X:6979
T:The King shall enjoy his own again
O:england
M:4/4
L:1/4
S:Henry Atkinson 1694/5 transcribed John Stokoe 1883
N:No key signature given but c/f other versions should be D major.  There
N:is a dal segno sign over the begining of bar 9 here replaced by repeat
N:marks between bars 8 and 9
K:D Major
AAdd|e/2f/2g/2a/2fe/2f/2|gBcd/2e/2|e2d2||ec/2d/2ef|e/2d/2c/2d/2ef|gBc/2d
/2e/2B/2|B2A2|:a/2b/2a/2g/2fe/2d/2|e/2f/2g/2a/2fe/2f/2|gBcd/2e/2|e2d2||


